public/assets/sponsors/interview-cake-light.svg

<svg xmlns="http://www.w3.org/2000/svg" viewBox="0 0 1754 1850" fill="none" xmlns:v="https://vecta.io/nano"><path d="M1270.24 0l-179.61 18.517c-368.48 44.44-686.967 127.765-929.535 240.716C103.693 287.008 49.995 314.783 0 344.41v1077.67l1753.53 427.74V757.332L1270.24 0zm324.04 1647.98L161.095 1298.02V975.828L1594.28 1331.35v316.63zm0-481.43L162.947 811.03V488.84L1596.14 844.36c-1.85 0-1.86 322.19-1.86 322.19z" fill="#000"/></svg>

<svg viewBox="0 0 1754 1850" fill="none" xmlns="http://www.w3.org/2000/svg">
<path d="M1270.24 0C1209.14 5.555 1149.89 11.11 1090.63 18.5167C722.15 62.9567 403.663 146.282 161.095 259.233C103.693 287.008 49.995 314.783 0 344.41V1422.08L1753.53 1849.82V757.332L1270.24 0ZM1594.28 1647.98L161.095 1298.02V975.828L1594.28 1331.35V1647.98ZM1594.28 1166.55L162.947 811.03V488.84L1596.14 844.36C1594.29 844.36 1594.28 1166.55 1594.28 1166.55Z" fill="black"/>
</svg>
